images/3234883.svg

<?xml version="1.0" encoding="UTF-8"?>
<svg xmlns="http://www.w3.org/2000/svg" xmlns:xlink="http://www.w3.org/1999/xlink" width="300pt" height="300pt" viewBox="0 0 300 300" version="1.1">
<defs>
<g>
<symbol overflow="visible" id="glyph0-0">
<path style="stroke:none;" d="M 0.453125 1.59375 L 0.453125 -6.34375 L 4.953125 -6.34375 L 4.953125 1.59375 Z M 0.953125 1.09375 L 4.453125 1.09375 L 4.453125 -5.84375 L 0.953125 -5.84375 Z M 0.953125 1.09375 "/>
</symbol>
<symbol overflow="visible" id="glyph0-1">
<path style="stroke:none;" d="M 0.890625 -6.5625 L 2.078125 -6.5625 L 4.984375 -1.078125 L 4.984375 -6.5625 L 5.84375 -6.5625 L 5.84375 0 L 4.65625 0 L 1.75 -5.484375 L 1.75 0 L 0.890625 0 Z M 0.890625 -6.5625 "/>
</symbol>
<symbol overflow="visible" id="glyph0-2">
<path style="stroke:none;" d="M 3.546875 -5.953125 C 2.898438 -5.953125 2.382812 -5.710938 2 -5.234375 C 1.625 -4.753906 1.4375 -4.101562 1.4375 -3.28125 C 1.4375 -2.445312 1.625 -1.789062 2 -1.3125 C 2.382812 -0.832031 2.898438 -0.59375 3.546875 -0.59375 C 4.191406 -0.59375 4.703125 -0.832031 5.078125 -1.3125 C 5.453125 -1.789062 5.640625 -2.445312 5.640625 -3.28125 C 5.640625 -4.101562 5.453125 -4.753906 5.078125 -5.234375 C 4.703125 -5.710938 4.191406 -5.953125 3.546875 -5.953125 Z M 3.546875 -6.6875 C 4.460938 -6.6875 5.195312 -6.375 5.75 -5.75 C 6.300781 -5.132812 6.578125 -4.3125 6.578125 -3.28125 C 6.578125 -2.238281 6.300781 -1.410156 5.75 -0.796875 C 5.195312 -0.179688 4.460938 0.125 3.546875 0.125 C 2.617188 0.125 1.878906 -0.179688 1.328125 -0.796875 C 0.773438 -1.410156 0.5 -2.238281 0.5 -3.28125 C 0.5 -4.3125 0.773438 -5.132812 1.328125 -5.75 C 1.878906 -6.375 2.617188 -6.6875 3.546875 -6.6875 Z M 3.546875 -6.6875 "/>
</symbol>
<symbol overflow="visible" id="glyph0-3">
<path style="stroke:none;" d="M 0.890625 -6.5625 L 1.765625 -6.5625 L 1.765625 -3.875 L 5 -3.875 L 5 -6.5625 L 5.890625 -6.5625 L 5.890625 0 L 5 0 L 5 -3.125 L 1.765625 -3.125 L 1.765625 0 L 0.890625 0 Z M 0.890625 -6.5625 "/>
</symbol>
</g>
</defs>
<g id="surface35573">
<rect x="0" y="0" width="300" height="300" style="fill:rgb(100%,100%,100%);fill-opacity:1;stroke:none;"/>
<path style="fill:none;stroke-width:1.2;stroke-linecap:butt;stroke-linejoin:miter;stroke:rgb(0%,0%,0%);stroke-opacity:1;stroke-miterlimit:10;" d="M 85.414062 183.476562 L 68.347656 169.808594 "/>
<path style="fill:none;stroke-width:1.2;stroke-linecap:butt;stroke-linejoin:miter;stroke:rgb(0%,0%,0%);stroke-opacity:1;stroke-miterlimit:10;" d="M 68.347656 169.808594 L 69.371094 147.96875 "/>
<path style="fill:none;stroke-width:1.2;stroke-linecap:butt;stroke-linejoin:miter;stroke:rgb(0%,0%,0%);stroke-opacity:1;stroke-miterlimit:10;" d="M 63.3125 167.382812 L 64.128906 149.910156 "/>
<path style="fill:none;stroke-width:1.2;stroke-linecap:butt;stroke-linejoin:miter;stroke:rgb(100%,0%,0%);stroke-opacity:1;stroke-miterlimit:10;" d="M 47.257812 175.582031 L 57.804688 172.695312 "/>
<path style="fill:none;stroke-width:1.2;stroke-linecap:butt;stroke-linejoin:miter;stroke:rgb(0%,0%,0%);stroke-opacity:1;stroke-miterlimit:10;" d="M 57.804688 172.695312 L 68.347656 169.808594 "/>
<path style="fill:none;stroke-width:1.2;stroke-linecap:butt;stroke-linejoin:miter;stroke:rgb(0%,0%,0%);stroke-opacity:1;stroke-miterlimit:10;" d="M 69.371094 147.96875 L 48.917969 140.246094 "/>
<path style="fill:none;stroke-width:1.2;stroke-linecap:butt;stroke-linejoin:miter;stroke:rgb(0%,0%,0%);stroke-opacity:1;stroke-miterlimit:10;" d="M 69.371094 147.96875 L 87.644531 135.960938 "/>
<path style="fill:none;stroke-width:1.2;stroke-linecap:butt;stroke-linejoin:miter;stroke:rgb(0%,0%,0%);stroke-opacity:1;stroke-miterlimit:10;" d="M 48.917969 140.246094 L 42.082031 148.777344 "/>
<path style="fill:none;stroke-width:1.2;stroke-linecap:butt;stroke-linejoin:miter;stroke:rgb(0%,0%,100%);stroke-opacity:1;stroke-miterlimit:10;" d="M 42.082031 148.777344 L 35.25 157.3125 "/>
<path style="fill:none;stroke-width:1.2;stroke-linecap:butt;stroke-linejoin:miter;stroke:rgb(0%,0%,0%);stroke-opacity:1;stroke-miterlimit:10;" d="M 51.566406 145.167969 L 46.097656 151.992188 "/>
<path style="fill:none;stroke-width:1.2;stroke-linecap:butt;stroke-linejoin:miter;stroke:rgb(0%,0%,100%);stroke-opacity:1;stroke-miterlimit:10;" d="M 46.097656 151.992188 L 40.632812 158.820312 "/>
<path style="fill:none;stroke-width:1.2;stroke-linecap:butt;stroke-linejoin:miter;stroke:rgb(0%,0%,0%);stroke-opacity:1;stroke-miterlimit:10;" d="M 48.917969 140.246094 L 43.140625 119.15625 "/>
<path style="fill:none;stroke-width:1.2;stroke-linecap:butt;stroke-linejoin:miter;stroke:rgb(0%,0%,100%);stroke-opacity:1;stroke-miterlimit:10;" d="M 35.25 157.3125 L 41.253906 166.449219 "/>
<path style="fill:none;stroke-width:1.2;stroke-linecap:butt;stroke-linejoin:miter;stroke:rgb(100%,0%,0%);stroke-opacity:1;stroke-miterlimit:10;" d="M 41.253906 166.449219 L 47.257812 175.582031 "/>
<path style=" stroke:none;fill-rule:nonzero;fill:rgb(100%,100%,100%);fill-opacity:1;" d="M 32.25 151.8125 L 39.25 151.8125 L 39.25 162.8125 L 32.25 162.8125 Z M 32.25 151.8125 "/>
<g style="fill:rgb(0%,0%,100%);fill-opacity:1;">
  <use xlink:href="#glyph0-1" x="32.25" y="160.475586"/>
</g>
<path style=" stroke:none;fill-rule:nonzero;fill:rgb(100%,100%,100%);fill-opacity:1;" d="M 43.257812 170.082031 L 51.257812 170.082031 L 51.257812 181.082031 L 43.257812 181.082031 Z M 43.257812 170.082031 "/>
<g style="fill:rgb(100%,0%,0%);fill-opacity:1;">
  <use xlink:href="#glyph0-2" x="43.257812" y="178.745117"/>
</g>
<path style="fill:none;stroke-width:1.2;stroke-linecap:butt;stroke-linejoin:miter;stroke:rgb(0%,0%,0%);stroke-opacity:1;stroke-miterlimit:10;" d="M 87.644531 135.960938 L 107.179688 145.777344 "/>
<path style="fill:none;stroke-width:1.2;stroke-linecap:butt;stroke-linejoin:miter;stroke:rgb(0%,0%,0%);stroke-opacity:1;stroke-miterlimit:10;" d="M 91.90625 132.34375 L 107.535156 140.199219 "/>
<path style="fill:none;stroke-width:1.2;stroke-linecap:butt;stroke-linejoin:miter;stroke:rgb(0%,0%,100%);stroke-opacity:1;stroke-miterlimit:10;" d="M 86.378906 114.132812 L 87.011719 125.046875 "/>
<path style="fill:none;stroke-width:1.2;stroke-linecap:butt;stroke-linejoin:miter;stroke:rgb(0%,0%,0%);stroke-opacity:1;stroke-miterlimit:10;" d="M 87.011719 125.046875 L 87.644531 135.960938 "/>
<path style="fill:none;stroke-width:1.2;stroke-linecap:butt;stroke-linejoin:miter;stroke:rgb(0%,0%,0%);stroke-opacity:1;stroke-miterlimit:10;" d="M 107.179688 145.777344 L 125.453125 133.769531 "/>
<path style="fill:none;stroke-width:1.2;stroke-linecap:butt;stroke-linejoin:miter;stroke:rgb(0%,0%,0%);stroke-opacity:1;stroke-miterlimit:10;" d="M 125.453125 133.769531 L 124.820312 122.855469 "/>
<path style="fill:none;stroke-width:1.2;stroke-linecap:butt;stroke-linejoin:miter;stroke:rgb(0%,0%,100%);stroke-opacity:1;stroke-miterlimit:10;" d="M 124.820312 122.855469 L 124.1875 111.941406 "/>
<path style="fill:none;stroke-width:1.2;stroke-linecap:butt;stroke-linejoin:miter;stroke:rgb(0%,0%,0%);stroke-opacity:1;stroke-miterlimit:10;" d="M 120.1875 131.882812 L 119.683594 123.152344 "/>
<path style="fill:none;stroke-width:1.2;stroke-linecap:butt;stroke-linejoin:miter;stroke:rgb(0%,0%,100%);stroke-opacity:1;stroke-miterlimit:10;" d="M 119.683594 123.152344 L 119.179688 114.421875 "/>
<path style="fill:none;stroke-width:1.2;stroke-linecap:butt;stroke-linejoin:miter;stroke:rgb(0%,0%,0%);stroke-opacity:1;stroke-miterlimit:10;" d="M 125.453125 133.769531 L 135.21875 138.679688 "/>
<path style="fill:none;stroke-width:1.2;stroke-linecap:butt;stroke-linejoin:miter;stroke:rgb(0%,0%,100%);stroke-opacity:1;stroke-miterlimit:10;" d="M 135.21875 138.679688 L 144.988281 143.589844 "/>
<path style="fill:none;stroke-width:1.2;stroke-linecap:butt;stroke-linejoin:miter;stroke:rgb(0%,0%,100%);stroke-opacity:1;stroke-miterlimit:10;" d="M 124.1875 111.941406 L 114.417969 107.03125 "/>
<path style="fill:none;stroke-width:1.2;stroke-linecap:butt;stroke-linejoin:miter;stroke:rgb(0%,0%,0%);stroke-opacity:1;stroke-miterlimit:10;" d="M 114.417969 107.03125 L 104.652344 102.121094 "/>
<path style=" stroke:none;fill-rule:nonzero;fill:rgb(100%,100%,100%);fill-opacity:1;" d="M 121.1875 106.441406 L 128.1875 106.441406 L 128.1875 117.441406 L 121.1875 117.441406 Z M 121.1875 106.441406 "/>
<g style="fill:rgb(0%,0%,100%);fill-opacity:1;">
  <use xlink:href="#glyph0-1" x="121.1875" y="115.104492"/>
</g>
<path style="fill:none;stroke-width:1.2;stroke-linecap:butt;stroke-linejoin:miter;stroke:rgb(0%,0%,0%);stroke-opacity:1;stroke-miterlimit:10;" d="M 104.652344 102.121094 L 95.515625 108.125 "/>
<path style="fill:none;stroke-width:1.2;stroke-linecap:butt;stroke-linejoin:miter;stroke:rgb(0%,0%,100%);stroke-opacity:1;stroke-miterlimit:10;" d="M 95.515625 108.125 L 86.378906 114.132812 "/>
<path style="fill:none;stroke-width:1.2;stroke-linecap:butt;stroke-linejoin:miter;stroke:rgb(0%,0%,0%);stroke-opacity:1;stroke-miterlimit:10;" d="M 105.648438 107.621094 L 98.339844 112.425781 "/>
<path style="fill:none;stroke-width:1.2;stroke-linecap:butt;stroke-linejoin:miter;stroke:rgb(0%,0%,100%);stroke-opacity:1;stroke-miterlimit:10;" d="M 98.339844 112.425781 L 91.03125 117.230469 "/>
<path style=" stroke:none;fill-rule:nonzero;fill:rgb(100%,100%,100%);fill-opacity:1;" d="M 83.378906 108.632812 L 90.378906 108.632812 L 90.378906 119.632812 L 83.378906 119.632812 Z M 83.378906 108.632812 "/>
<g style="fill:rgb(0%,0%,100%);fill-opacity:1;">
  <use xlink:href="#glyph0-1" x="83.378906" y="117.295898"/>
</g>
<path style="fill:none;stroke-width:1.2;stroke-linecap:butt;stroke-linejoin:miter;stroke:rgb(0%,0%,100%);stroke-opacity:1;stroke-miterlimit:10;" d="M 144.988281 143.589844 L 154.125 137.585938 "/>
<path style="fill:none;stroke-width:1.2;stroke-linecap:butt;stroke-linejoin:miter;stroke:rgb(0%,0%,0%);stroke-opacity:1;stroke-miterlimit:10;" d="M 154.125 137.585938 L 163.257812 131.582031 "/>
<path style=" stroke:none;fill-rule:nonzero;fill:rgb(100%,100%,100%);fill-opacity:1;" d="M 137.988281 138.089844 L 151.988281 138.089844 L 151.988281 149.089844 L 137.988281 149.089844 Z M 137.988281 138.089844 "/>
<g style="fill:rgb(0%,0%,100%);fill-opacity:1;">
  <use xlink:href="#glyph0-1" x="137.988281" y="146.75293"/>
  <use xlink:href="#glyph0-3" x="144.96582" y="146.75293"/>
</g>
<path style="fill:none;stroke-width:1.2;stroke-linecap:butt;stroke-linejoin:miter;stroke:rgb(0%,0%,0%);stroke-opacity:1;stroke-miterlimit:10;" d="M 163.257812 131.582031 L 182.792969 141.402344 "/>
<path style="fill:none;stroke-width:1.2;stroke-linecap:butt;stroke-linejoin:miter;stroke:rgb(0%,0%,0%);stroke-opacity:1;stroke-miterlimit:10;" d="M 182.792969 141.402344 L 201.066406 129.390625 "/>
<path style="fill:none;stroke-width:1.2;stroke-linecap:butt;stroke-linejoin:miter;stroke:rgb(0%,0%,0%);stroke-opacity:1;stroke-miterlimit:10;" d="M 201.066406 129.390625 L 202.089844 107.550781 "/>
<path style="fill:none;stroke-width:1.2;stroke-linecap:butt;stroke-linejoin:miter;stroke:rgb(0%,0%,0%);stroke-opacity:1;stroke-miterlimit:10;" d="M 206.308594 127.449219 L 207.128906 109.976562 "/>
<path style="fill:none;stroke-width:1.2;stroke-linecap:butt;stroke-linejoin:miter;stroke:rgb(0%,0%,0%);stroke-opacity:1;stroke-miterlimit:10;" d="M 221.523438 137.117188 L 201.066406 129.390625 "/>
<path style="fill:none;stroke-width:1.2;stroke-linecap:butt;stroke-linejoin:miter;stroke:rgb(0%,0%,0%);stroke-opacity:1;stroke-miterlimit:10;" d="M 202.089844 107.550781 L 212.636719 104.664062 "/>
<path style="fill:none;stroke-width:1.2;stroke-linecap:butt;stroke-linejoin:miter;stroke:rgb(0%,0%,100%);stroke-opacity:1;stroke-miterlimit:10;" d="M 212.636719 104.664062 L 223.179688 101.777344 "/>
<path style="fill:none;stroke-width:1.2;stroke-linecap:butt;stroke-linejoin:miter;stroke:rgb(0%,0%,100%);stroke-opacity:1;stroke-miterlimit:10;" d="M 223.179688 101.777344 L 229.183594 110.914062 "/>
<path style="fill:none;stroke-width:1.2;stroke-linecap:butt;stroke-linejoin:miter;stroke:rgb(0%,0%,0%);stroke-opacity:1;stroke-miterlimit:10;" d="M 229.183594 110.914062 L 235.1875 120.046875 "/>
<path style=" stroke:none;fill-rule:nonzero;fill:rgb(100%,100%,100%);fill-opacity:1;" d="M 216.179688 96.277344 L 230.179688 96.277344 L 230.179688 107.277344 L 216.179688 107.277344 Z M 216.179688 96.277344 "/>
<g style="fill:rgb(0%,0%,100%);fill-opacity:1;">
  <use xlink:href="#glyph0-1" x="216.179688" y="104.94043"/>
  <use xlink:href="#glyph0-3" x="223.157227" y="104.94043"/>
</g>
<path style="fill:none;stroke-width:1.2;stroke-linecap:butt;stroke-linejoin:miter;stroke:rgb(0%,0%,0%);stroke-opacity:1;stroke-miterlimit:10;" d="M 235.1875 120.046875 L 221.523438 137.117188 "/>
<path style="fill:none;stroke-width:1.2;stroke-linecap:butt;stroke-linejoin:miter;stroke:rgb(0%,0%,0%);stroke-opacity:1;stroke-miterlimit:10;" d="M 237.835938 124.972656 L 226.90625 138.625 "/>
<path style="fill:none;stroke-width:1.2;stroke-linecap:butt;stroke-linejoin:miter;stroke:rgb(0%,0%,0%);stroke-opacity:1;stroke-miterlimit:10;" d="M 256.800781 123.351562 L 235.1875 120.046875 "/>
<path style="fill:none;stroke-width:1.2;stroke-linecap:butt;stroke-linejoin:miter;stroke:rgb(0%,0%,0%);stroke-opacity:1;stroke-miterlimit:10;" d="M 221.523438 137.117188 L 229.46875 157.484375 "/>
<path style="fill:none;stroke-width:1.2;stroke-linecap:butt;stroke-linejoin:miter;stroke:rgb(0%,0%,0%);stroke-opacity:1;stroke-miterlimit:10;" d="M 229.46875 157.484375 L 251.082031 160.785156 "/>
<path style="fill:none;stroke-width:1.2;stroke-linecap:butt;stroke-linejoin:miter;stroke:rgb(0%,0%,0%);stroke-opacity:1;stroke-miterlimit:10;" d="M 232.40625 152.730469 L 249.699219 155.371094 "/>
<path style="fill:none;stroke-width:1.2;stroke-linecap:butt;stroke-linejoin:miter;stroke:rgb(0%,0%,0%);stroke-opacity:1;stroke-miterlimit:10;" d="M 251.082031 160.785156 L 264.75 143.71875 "/>
<path style="fill:none;stroke-width:1.2;stroke-linecap:butt;stroke-linejoin:miter;stroke:rgb(0%,0%,0%);stroke-opacity:1;stroke-miterlimit:10;" d="M 251.082031 160.785156 L 255.058594 170.972656 "/>
<path style="fill:none;stroke-width:1.2;stroke-linecap:butt;stroke-linejoin:miter;stroke:rgb(100%,0%,0%);stroke-opacity:1;stroke-miterlimit:10;" d="M 255.058594 170.972656 L 259.03125 181.15625 "/>
<path style="fill:none;stroke-width:1.2;stroke-linecap:butt;stroke-linejoin:miter;stroke:rgb(0%,0%,0%);stroke-opacity:1;stroke-miterlimit:10;" d="M 264.75 143.71875 L 256.800781 123.351562 "/>
<path style="fill:none;stroke-width:1.2;stroke-linecap:butt;stroke-linejoin:miter;stroke:rgb(0%,0%,0%);stroke-opacity:1;stroke-miterlimit:10;" d="M 259.164062 143.550781 L 252.804688 127.257812 "/>
<path style="fill:none;stroke-width:1.2;stroke-linecap:butt;stroke-linejoin:miter;stroke:rgb(100%,0%,0%);stroke-opacity:1;stroke-miterlimit:10;" d="M 259.03125 181.15625 L 252.199219 189.691406 "/>
<path style="fill:none;stroke-width:1.2;stroke-linecap:butt;stroke-linejoin:miter;stroke:rgb(0%,0%,0%);stroke-opacity:1;stroke-miterlimit:10;" d="M 252.199219 189.691406 L 245.363281 198.222656 "/>
<path style=" stroke:none;fill-rule:nonzero;fill:rgb(100%,100%,100%);fill-opacity:1;" d="M 255.03125 175.65625 L 263.03125 175.65625 L 263.03125 186.65625 L 255.03125 186.65625 Z M 255.03125 175.65625 "/>
<g style="fill:rgb(100%,0%,0%);fill-opacity:1;">
  <use xlink:href="#glyph0-2" x="255.03125" y="184.319336"/>
</g>
</g>
</svg>

<svg xmlns="http://www.w3.org/2000/svg" xmlns:xlink="http://www.w3.org/1999/xlink" width="300pt" height="300pt" viewBox="0 0 300 300"><defs><symbol overflow="visible"><path d="M.453 1.594v-7.938h4.5v7.938zm.5-.5h3.5v-6.938h-3.5zm0 0"/></symbol><symbol overflow="visible" id="a"><path d="M.89-6.563H2.08l2.906 5.485v-5.484h.86V0H4.656L1.75-5.484V0H.89zm0 0"/></symbol><symbol overflow="visible" id="b"><path d="M3.547-5.953c-.65 0-1.164.242-1.547.72-.375.48-.563 1.13-.563 1.952 0 .835.188 1.49.563 1.967.383.48.898.72 1.547.72.644 0 1.156-.24 1.53-.72.376-.476.564-1.132.564-1.968 0-.822-.187-1.474-.562-1.954-.375-.477-.887-.72-1.53-.72zm0-.734c.914 0 1.648.312 2.203.937.55.617.828 1.438.828 2.47 0 1.042-.277 1.87-.828 2.483-.555.617-1.29.922-2.203.922-.93 0-1.668-.305-2.22-.922C.774-1.41.5-2.237.5-3.28c0-1.033.273-1.853.828-2.47.55-.625 1.29-.938 2.22-.938zm0 0"/></symbol><symbol overflow="visible" id="c"><path d="M.89-6.563h.876v2.688H5v-2.688h.89V0H5v-3.125H1.766V0H.89zm0 0"/></symbol></defs><g><path fill="#fff" d="M0 0h300v300H0z"/><path d="M85.414 183.477L68.348 169.81M68.348 169.81l1.023-21.84M63.313 167.383l.816-17.473" stroke-width="1.2" stroke="#000" stroke-miterlimit="10" fill="none"/><path d="M47.258 175.582l10.547-2.887" stroke-width="1.2" stroke="#f00" stroke-miterlimit="10" fill="none"/><path d="M57.805 172.695l10.543-2.886M69.37 147.97l-20.452-7.724M69.37 147.97l18.275-12.01M48.918 140.246l-6.836 8.53" stroke-width="1.2" stroke="#000" stroke-miterlimit="10" fill="none"/><path d="M42.082 148.777l-6.832 8.536" stroke-width="1.2" stroke="#00f" stroke-miterlimit="10" fill="none"/><path d="M51.566 145.168l-5.468 6.824" stroke-width="1.2" stroke="#000" stroke-miterlimit="10" fill="none"/><path d="M46.098 151.992l-5.465 6.828" stroke-width="1.2" stroke="#00f" stroke-miterlimit="10" fill="none"/><path d="M48.918 140.246l-5.777-21.09" stroke-width="1.2" stroke="#000" stroke-miterlimit="10" fill="none"/><path d="M35.25 157.313l6.004 9.136" stroke-width="1.2" stroke="#00f" stroke-miterlimit="10" fill="none"/><path d="M41.254 166.45l6.004 9.132" stroke-width="1.2" stroke="#f00" stroke-miterlimit="10" fill="none"/><path d="M32.25 151.813h7v11h-7zm0 0" fill="#fff"/><use xlink:href="#a" x="32.25" y="160.476" fill="#00f"/><path d="M43.258 170.082h8v11h-8zm0 0" fill="#fff"/><use xlink:href="#b" x="43.258" y="178.745" fill="#f00"/><path d="M87.645 135.96l19.535 9.817M91.906 132.344l15.63 7.855" stroke-width="1.2" stroke="#000" stroke-miterlimit="10" fill="none"/><path d="M86.38 114.133l.632 10.914" stroke-width="1.2" stroke="#00f" stroke-miterlimit="10" fill="none"/><path d="M87.012 125.047l.633 10.914M107.18 145.777l18.273-12.007M125.453 133.77l-.633-10.915" stroke-width="1.2" stroke="#000" stroke-miterlimit="10" fill="none"/><path d="M124.82 122.855l-.632-10.914" stroke-width="1.2" stroke="#00f" stroke-miterlimit="10" fill="none"/><path d="M120.188 131.883l-.504-8.73" stroke-width="1.2" stroke="#000" stroke-miterlimit="10" fill="none"/><path d="M119.684 123.152l-.504-8.73" stroke-width="1.2" stroke="#00f" stroke-miterlimit="10" fill="none"/><path d="M125.453 133.77l9.766 4.91" stroke-width="1.2" stroke="#000" stroke-miterlimit="10" fill="none"/><path d="M135.22 138.68l9.768 4.91M124.188 111.94l-9.77-4.91" stroke-width="1.2" stroke="#00f" stroke-miterlimit="10" fill="none"/><path d="M114.418 107.03l-9.766-4.91" stroke-width="1.2" stroke="#000" stroke-miterlimit="10" fill="none"/><path d="M121.188 106.44h7v11h-7zm0 0" fill="#fff"/><use xlink:href="#a" x="121.188" y="115.104" fill="#00f"/><path d="M104.652 102.12l-9.136 6.005" stroke-width="1.2" stroke="#000" stroke-miterlimit="10" fill="none"/><path d="M95.516 108.125l-9.137 6.008" stroke-width="1.2" stroke="#00f" stroke-miterlimit="10" fill="none"/><path d="M105.648 107.62l-7.308 4.806" stroke-width="1.2" stroke="#000" stroke-miterlimit="10" fill="none"/><path d="M98.34 112.426l-7.31 4.804" stroke-width="1.2" stroke="#00f" stroke-miterlimit="10" fill="none"/><path d="M83.38 108.633h7v11h-7zm0 0" fill="#fff"/><use xlink:href="#a" x="83.379" y="117.296" fill="#00f"/><path d="M144.988 143.59l9.137-6.004" stroke-width="1.2" stroke="#00f" stroke-miterlimit="10" fill="none"/><path d="M154.125 137.586l9.133-6.004" stroke-width="1.2" stroke="#000" stroke-miterlimit="10" fill="none"/><path d="M137.988 138.09h14v11h-14zm0 0" fill="#fff"/><g fill="#00f"><use xlink:href="#a" x="137.988" y="146.753"/><use xlink:href="#c" x="144.966" y="146.753"/></g><path d="M163.258 131.582l19.535 9.82M182.793 141.402l18.273-12.01M201.066 129.39l1.024-21.84M206.31 127.45l.82-17.473M221.523 137.117l-20.457-7.726M202.09 107.55l10.547-2.886" stroke-width="1.2" stroke="#000" stroke-miterlimit="10" fill="none"/><path d="M212.637 104.664l10.543-2.887M223.18 101.777l6.004 9.137" stroke-width="1.2" stroke="#00f" stroke-miterlimit="10" fill="none"/><path d="M229.184 110.914l6.004 9.133" stroke-width="1.2" stroke="#000" stroke-miterlimit="10" fill="none"/><path d="M216.18 96.277h14v11h-14zm0 0" fill="#fff"/><g fill="#00f"><use xlink:href="#a" x="216.18" y="104.94"/><use xlink:href="#c" x="223.157" y="104.94"/></g><path d="M235.188 120.047l-13.665 17.07M237.836 124.973l-10.93 13.652M256.8 123.352l-21.613-3.305M221.523 137.117l7.946 20.367M229.47 157.484l21.612 3.3M232.406 152.73l17.293 2.64M251.082 160.785l13.668-17.066M251.082 160.785l3.977 10.188" stroke-width="1.2" stroke="#000" stroke-miterlimit="10" fill="none"/><path d="M255.06 170.973l3.97 10.183" stroke-width="1.2" stroke="#f00" stroke-miterlimit="10" fill="none"/><path d="M264.75 143.72l-7.95-20.368M259.164 143.55l-6.36-16.292" stroke-width="1.2" stroke="#000" stroke-miterlimit="10" fill="none"/><path d="M259.03 181.156l-6.83 8.535" stroke-width="1.2" stroke="#f00" stroke-miterlimit="10" fill="none"/><path d="M252.2 189.69l-6.837 8.533" stroke-width="1.2" stroke="#000" stroke-miterlimit="10" fill="none"/><path d="M255.03 175.656h8v11h-8zm0 0" fill="#fff"/><use xlink:href="#b" x="255.031" y="184.319" fill="#f00"/></g></svg>
